!!!!SEGMENT: pl-kk--kk-i-322--003_casali-giovanni-battista--credidi-propter-vota-mea.krn
!!!cenid: 17xx:2125
!!!COM: Casali, Giovanni Battista
!!!COM-rismid: pe30000607
!!!CDT: 1715-1792/07/06
!!!CNT: Italian
!!!OPR: Credidi propter
!!!OTL: Vota mea
!!!OMV: 003
!!!PDT:
!!!AGN: Sacred
!!!SMS-siglum: PL-Kk
!!!SMS-shelfmark: Kk.I.322
!!!SMS-shelfwork: 001-003 M
!!!SMS-variant:
!!!SMS-altvar:
!!!NIFC-rismid: 1001146194
!!!URL-scan: http://repozytorium.nifc.pl/skany/pl-kk-nut--i-322
!!!ONB-nifc: UWAGA: części Credidi: 1. Credidi propter, 2. Calicem salutaris, 3. Vota mea, 4. O Domine, 5. Dirupisti vincula mea, 6. Vota mea, 7. Gloria Patri, 8. Et in saecula saeculorum
**kern	**fb	**kern	**text	**dynam	**kern	**text	**dynam	**kern	**text	**dynam	**kern	**text	**kern
*part6	*	*part5	*part5	*part5	*part4	*part4	*part4	*part3	*part3	*part3	*part2	*part2	*part1
*staff6	*	*staff5	*staff5	*	*staff4	*staff4	*	*staff3	*staff3	*	*staff2	*staff2	*staff1
*Iorgan	*	*Iempty	*	*	*Itenor	*	*	*Ialto	*	*	*Ivox	*	*Ivox
*I"Organo	*	*I"Baſso di Ripieno	*	*	*I"Tenore di Ripieno	*	*	*I"Alto di Ripieno	*	*	*I"Canto di Ripieno	*	*I"Canto ſolo
*I'org	*	*I'B rip	*	*	*I'T rip	*	*	*I'A rip	*	*	*I'S rip	*	*I'S
*clefF4	*	*clefF4	*	*	*clefC4	*	*	*clefC3	*	*	*clefC1	*	*clefC1
*k[f#c#]	*	*k[f#c#]	*	*	*k[f#c#]	*	*	*k[f#c#]	*	*	*k[f#c#]	*	*k[f#c#]
*b:	*	*b:	*	*	*b:	*	*	*b:	*	*	*b:	*	*b:
*M2/2	*	*M2/2	*	*	*M2/2	*	*	*M2/2	*	*	*M2/2	*	*M2/2
*met(c|)	*	*met(c|)	*	*	*met(c|)	*	*	*met(c|)	*	*	*met(c|)	*	*met(c|)
=1-	=1-	=1-	=1-	=1-	=1-	=1-	=1-	=1-	=1-	=1-	=1-	=1-	=1-
!LO:TX:b:i:t=vota mea	!	!	!	!	!	!	!	!	!	!	!	!	!
!LO:TX:a:i:t=commodo	!	!LO:TX:a:t=Tutti	!	!	!LO:TX:a:t=Tutti	!	!	!LO:TX:a:t=Tutti	!	!	!LO:TX:a:t=Tutti	!	!
!LO:TX:a:t=Tutti	!	!LO:TX:t=P:problem:2\right:global	!	!	!LO:TX:t=P:problem:2\right:global	!	!	!	!	!	!	!	!LO:TX:a:t=Vota mea Tace(t)
*all\right	*	*all\right	*	*	*all\right	*	*	*all\right	*	*	*all\right	*	*
*2\right	*	*2\right	*	*	*2\right	*	*	*2\right	*	*	*2\right	*	*
1B\	.	2.B\	Vo-	.	2.d\	Vo-	.	2.f#\	Vo-	.	2.b\	Vo-	1ryy
.	.	4B\	-ta	.	4d\	-ta	.	4f#\	-ta	.	4b\	-ta	.
=2-	=2-	=2-	=2-	=2-	=2-	=2-	=2-	=2-	=2-	=2-	=2-	=2-	=2-
!LO:TX:t=P:problem:2\right:global	!	!	!	!	!	!	!	!	!	!	!	!	!
2A#X\	6	2A#X\	me-	.	2c#\	me-	.	2f#\	me-	.	2.cc#\	me-	1ryy
2F#\	#	2F#\	-a	.	2c#\	-a	.	2f#\	-a	.	.	.	.
.	.	.	.	.	.	.	.	.	.	.	4a#X\	-a	.
=3-	=3-	=3-	=3-	=3-	=3-	=3-	=3-	=3-	=3-	=3-	=3-	=3-	=3-
2B\	.	2B\	Do-	.	2d\	Do-	.	2f#\	Do-	.	2b\	Do-	1ryy
2d\	6	4d\	-mi-	.	4d\	-mi-	.	4f#\	-mi-	.	4b\	-mi-	.
.	.	4d\	-no	.	4d\	-no	.	4f#\	-no	.	4b\	-no	.
=4-	=4-	=4-	=4-	=4-	=4-	=4-	=4-	=4-	=4-	=4-	=4-	=4-	=4-
1c#\	7	1c#\	red-	.	1e\	red-	.	1e\	red-	.	(2b\	red-	1ryy
.	6#	.	.	.	.	.	.	.	.	.	2a#X\)	.	.
=5-	=5-	=5-	=5-	=5-	=5-	=5-	=5-	=5-	=5-	=5-	=5-	=5-	=5-
!	!	!	!	!	!LO:LB:g=original	!	!	!	!	!	!LO:LB:g=original	!	!
2B\	.	1B\	-dam	.	2d\	-dam	.	1f#\	-dam	.	2b\	-dam	1ryy
2.B\	.	.	.	.	1d\	co-	.	.	.	.	1b\	co-	.
=6-	=6-	=6-	=6-	=6-	=6-	=6-	=6-	=6-	=6-	=6-	=6-	=6-	=6-
!	!	!LO:LB:g=original	!	!	!	!	!	!LO:LB:g=original	!	!	!	!	!
.	.	(4B\	co-	.	.	.	.	2f#\	co-	.	.	.	1ryy
4A\	.	4A\)	.	.	.	.	.	.	.	.	.	.	.
4G#X\	5	(4G#X\	-ram	.	2d\	-ra(m)	.	2g#X\	-ram	.	2b\	-ram	.
4F#\	.	4F#\)	.	.	.	.	.	.	.	.	.	.	.
=7-	=7-	=7-	=7-	=7-	=7-	=7-	=7-	=7-	=7-	=7-	=7-	=7-	=7-
!	!	!	!	!	!	!	!	!LO:SIC:v:s=2g#	!	!	!	!	!
2E#X\	6 5	2E#X\	om-	.	2c#\	om-	.	2g\	om-	.	2b\	om-	1ryy
2F#\	.	2F#\	-ni	.	2c#\	-ni	.	2f#\	-ni	.	2an\	-ni	.
=8-	=8-	=8-	=8-	=8-	=8-	=8-	=8-	=8-	=8-	=8-	=8-	=8-	=8-
2C#/	3#	2c#\	po-	.	2c#\	po-	.	2e#X\	po-	.	2g#X\	po-	1ryy
2F#\	.	4F#\	-pu-	.	4c#\	-pu-	.	4f#\	-pu-	.	4a\	-pu-	.
.	.	4F#\	-lo	.	4c#\	-lo	.	4f#\	-lo	.	4a\	-lo	.
=9-	=9-	=9-	=9-	=9-	=9-	=9-	=9-	=9-	=9-	=9-	=9-	=9-	=9-
1C#/	4	1C#/	e-	.	1c#\	e-	.	(2f#\	e-	.	1g#X\	e-	1ryy
.	3#	.	.	.	.	.	.	2e#X\)	.	.	.	.	.
=10-	=10-	=10-	=10-	=10-	=10-	=10-	=10-	=10-	=10-	=10-	=10-	=10-	=10-
!	!	!	!	!	!LO:LB:g=original	!	!	!	!	!	!	!	!
0F#\	.	2F#\	-iuſ	.	2c#\	-iuſ	.	2f#\	-iuſ	.	2f#/	-iuſ	1ryy
.	.	2r	.	.	2r	.	.	2c#\	pre-	.	2r	.	.
=11-	=11-	=11-	=11-	=11-	=11-	=11-	=11-	=11-	=11-	=11-	=11-	=11-	=11-
!	!	!LO:PB:g=original	!	!	!	!	!	!LO:PB:g=original	!	!	!LO:PB:g=original	!	!
.	.	2r	.	.	2r	.	.	1.f#\	-tio-	.	2r	.	1ryy
.	.	2F#\	pre-	.	2c#\	pre-	.	.	.	.	2a\	pre-	.
=12-	=12-	=12-	=12-	=12-	=12-	=12-	=12-	=12-	=12-	=12-	=12-	=12-	=12-
1C#/	4	2c#\	-tio-	.	2c#\	-tio-	.	.	.	.	2g#X\	-tio-	1ryy
.	3n	2C#/	-sa	.	2c#\	-sa	.	2e\	-sa	.	2g#\	-sa	.
=13-	=13-	=13-	=13-	=13-	=13-	=13-	=13-	=13-	=13-	=13-	=13-	=13-	=13-
1AA#X/	6	2.A#X\	in	.	2c#\	in	.	2f#\	in	.	2cc#\	in	1ryy
.	7 5	.	.	.	2e\	con-	.	2g\	con-	.	2cc#\	con-	.
.	.	4A#\	con-	.	.	.	.	.	.	.	.	.	.
=14-	=14-	=14-	=14-	=14-	=14-	=14-	=14-	=14-	=14-	=14-	=14-	=14-	=14-
2BB/	4	2B\	-spec-	.	2d\	-ſpec-	.	2f#\	-spec-	.	2b\	-spec-	1ryy
2F#\	3#	2F#\	-tu	.	2c#\	-tu	.	1f#\	-tu	.	2a#X\	-tu	.
=15-	=15-	=15-	=15-	=15-	=15-	=15-	=15-	=15-	=15-	=15-	=15-	=15-	=15-
1G\	7	2.G\	Do-	.	2.B\	Do-	.	.	.	.	2.b\	Do-	1ryy
.	6	.	.	.	.	.	.	4e\	Do-	.	.	.	.
.	.	4G\	-mi-	.	4B\	-mi-	.	4e\	-mi-	.	4b\	-mi-	.
=16-	=16-	=16-	=16-	=16-	=16-	=16-	=16-	=16-	=16-	=16-	=16-	=16-	=16-
1F#\	#	1F#\	-ni	.	1c#\	-ni	.	1f#\	-ni	.	1a#X\	-ni	1ryy
=17-	=17-	=17-	=17-	=17-	=17-	=17-	=17-	=17-	=17-	=17-	=17-	=17-	=17-
!	!	!LO:TX:i:a:t=Solo	!	!	!	!	!	!	!	!	!	!	!
!LO:TX:i:a:t=chiuso	!	!	!	!LO:DY:a	!LO:TX:b:t=4	!	!	!LO:TX:b:t=4	!	!	!LO:TX:b:t=3	!	!
*	*above	*	*	*	*	*	*	*	*	*	*	*	*
>0BB/	5	2B\	morſ	p	00r	.	.	00r	.	.	0r	.	1ryy
*	*below	*	*	*	*	*	*	*	*	*	*	*	*
.	.	2F#\	san-	.	.	.	.	.	.	.	.	.	.
=18-	=18-	=18-	=18-	=18-	=18-	=18-	=18-	=18-	=18-	=18-	=18-	=18-	=18-
.	.	2D/	-cto-	.	.	.	.	.	.	.	.	.	1ryy
.	.	2BB/	-ru(m)	.	.	.	.	.	.	.	.	.	.
=19-	=19-	=19-	=19-	=19-	=19-	=19-	=19-	=19-	=19-	=19-	=19-	=19-	=19-
1C#/	7	1C#/	e-	.	.	.	.	.	.	.	1r	.	1ryy
.	6#	.	.	.	.	.	.	.	.	.	.	.	.
=20-	=20-	=20-	=20-	=20-	=20-	=20-	=20-	=20-	=20-	=20-	=20-	=20-	=20-
1BB/	.	2BB/	-ius	.	.	.	.	.	.	.	2r	.	1ryy
.	.	2r	.	.	.	.	.	.	.	.	1b\	mors	.
=21-	=21-	=21-	=21-	=21-	=21-	=21-	=21-	=21-	=21-	=21-	=21-	=21-	=21-
!	!	!LO:TX:a:i:t=Tutti	!	!LO:DY:t=poc. p.o	!	!	!LO:DY:t=pco p.o	!	!	!LO:DY:t=pco pia.	!	!	!
!	!	!	!	!LO:DY:a	!	!	!LO:DY:a	!	!	!LO:DY:a	!	!	!
1F#\	5 4	1F#\	morſ	p	1f#\	morſ	p	(2c#\	mors	p	.	.	1ryy
.	6# 3	.	.	.	.	.	.	2d#X\)	.	.	1a\	.	.
=22-	=22-	=22-	=22-	=22-	=22-	=22-	=22-	=22-	=22-	=22-	=22-	=22-	=22-
1E\	4	1E\	morſ-	.	1B\	morſ-	.	1e\	morſ	.	.	.	1ryy
.	3n	.	.	.	.	.	.	.	.	.	2g\	.	.
=23-	=23-	=23-	=23-	=23-	=23-	=23-	=23-	=23-	=23-	=23-	=23-	=23-	=23-
!	!	!LO:LB:g=original	!	!	!	!	!	!	!	!	!	!	!
1E#X\	7	1E#X\	ſan-	.	1B\	ſan-	.	1dn\	ſan-	.	1g#X\	ſan-	1ryy
.	5	.	.	.	.	.	.	.	.	.	.	.	.
=24-	=24-	=24-	=24-	=24-	=24-	=24-	=24-	=24-	=24-	=24-	=24-	=24-	=24-
2F#\	#	2F#\	-cto-	.	2A#X\	-cto-	.	2c#\	-cto-	.	2f#/	-cto-	1ryy
2B\	.	2B\	-rum	.	2B\	-rum	.	2d\	-rum	.	2f#/	-rum	.
=25-	=25-	=25-	=25-	=25-	=25-	=25-	=25-	=25-	=25-	=25-	=25-	=25-	=25-
!	!	!	!	!	!	!	!	!	!	!	!LO:LB:g=original	!	!
0F#\	5 3#	0F#\	e-	.	2A#X\	e-	.	2c#\	e-	.	>0f#/	e-	1ryy
.	6 4	.	.	.	1B\	.	.	2d\	.	.	.	.	.
=26-	=26-	=26-	=26-	=26-	=26-	=26-	=26-	=26-	=26-	=26-	=26-	=26-	=26-
.	5 4	.	.	.	.	.	.	1c#\	.	.	.	.	1ryy
.	3#	.	.	.	2A#X\	.	.	.	.	.	.	.	.
=27-	=27-	=27-	=27-	=27-	=27-	=27-	=27-	=27-	=27-	=27-	=27-	=27-	=27-
!LO:TX:t=P:problem:brevis, brak kreski taktowej	!	!LO:TX:t=P:problem:brevis, brak kreski taktowej	!	!	!LO:TX:t=P:problem:brevis, brak kreski taktowej	!	!	!LO:TX:t=P:problem:brevis, brak kreski taktowej	!	!	!LO:TX:t=P:problem:brevis, brak kreski taktowej	!	!
!LO:N:vis=0	!	!LO:N:vis=0	!	!	!LO:N:vis=0	!	!	!LO:N:vis=0	!	!	!LO:N:vis=0	!	!
1BB/;	.	1BB/;	-ius	.	1B\;	-iuſ	.	1B/;	-iuſ	.	1f#/;	-ius	1ryy
=-	=-	=-	=-	=-	=-	=-	=-	=-	=-	=-	=-	=-	=-
*-	*-	*-	*-	*-	*-	*-	*-	*-	*-	*-	*-	*-	*-
!!!system-decoration: [(s1[(s2,s3,s4,s5)])][(s6)]
!!!RDF**kern: > = above
!!!RDF**kern: < = below
!!!EED: Andrzej Borzym
!!!EST: 2021-03-24
!!!ENC: Tomasz Grochalski
!!!END: 2021-03-16
